X: 11
T: Catharsis
R: reel
M: 4/4
L: 1/8
K: Bmin
FBBA FBBA|FABc d/c/B cA|FBBA FBBA|FEDE DCDC|
FBBA FBBA|FABc d/c/B ce|fede dcBA|1 FBBA B2 B2:|2 FBBA Bcde||
fBBe BBdB|BcBB Bcde|fAAe AAdA|AcAA Bcde|
fGGe GGdG|GcGG Bcde|fede dcBA|1 FBBA Bcde:|2 FEDE DCDC||


Tune 703	Setting 24975

